static/assets/images/exchanges/bitcow.svg

<svg width="257" height="256" viewBox="0 0 257 256" fill="none" xmlns="http://www.w3.org/2000/svg">
<path fill-rule="evenodd" clip-rule="evenodd" d="M74.6468 68.1967V89.1803H44.1573V104.918H59.9277H74.6468V150.033H105.136V135.344H119.855V89.1803H134.575V74.4918H142.985H89.3659V59.8033H74.6468V52.459V68.1967ZM89.3659 135.344H105.136V104.918H89.3659V135.344ZM179.783 179.41H165.064V195.148V187.803V179.41H179.783V195.148H165.064V209.836H150.345V224.525H195.554V209.836H210.273V195.148H195.554V179.41H179.783V142.689V104.918V179.41ZM224.992 157.377V164.721H210.273C201.862 164.721 198.708 164.721 202.913 164.721H210.273V179.41V195.148H224.992V173.115C225.156 167.87 225.156 162.622 224.992 157.377ZM74.6468 224.525V232.918V240.262V224.525H83.0577H89.3659V240.262H119.855V224.525H105.136V209.836H74.6468V224.525Z" fill="#808080"/>
<path fill-rule="evenodd" clip-rule="evenodd" d="M89.3659 14.6885H59.9277V29.377H52.5682H44.1573V36.7213V44.0656H36.7977H29.4382V52.459V59.8033H14.7191V89.1803H0V164.721H14.7191V195.148H29.4382V209.836H44.1573V218.229V224.525H59.9277V240.262H74.6468V224.525H59.9277V179.41H44.1573V104.918H29.4382V89.1803V74.4918H44.1573H59.9277V59.8033H74.6468V44.0656H165.064V59.8033H179.783V74.4918H210.273V104.918H224.992V135.344V179.41V195.148H210.273V209.836H195.554V224.525H165.064V240.262H89.3659V247.607V256H165.064V240.262H195.554V224.525H210.273V209.836H224.992V195.148H240.762V164.721H256.533V125.902C256.533 125.902 257.584 88.1311 256.533 89.1803H240.762V59.8033H224.992V44.0656H218.684H210.273V29.377H202.913H195.554V14.6885H165.064V0H89.3659V14.6885Z" fill="#FFA100"/>
<path fill-rule="evenodd" clip-rule="evenodd" d="M105.136 59.8033H134.575V44.0656H105.136V59.8033ZM203.965 104.918H195.554V150.033H224.992V104.918H218.684H203.965ZM44.1573 150.033H59.9277V119.607H44.1573V150.033Z" fill="#FFD775"/>
<path fill-rule="evenodd" clip-rule="evenodd" d="M59.9277 179.41H68.3386H74.6468V195.148H165.064V179.41H179.783V164.721H165.064V150.033H59.9277V179.41ZM89.3659 164.721V174.164V179.41H105.136V164.721H97.7768H89.3659ZM119.855 179.41H134.575V164.721H119.855V179.41Z" fill="#ED9B9D"/>
<path fill-rule="evenodd" clip-rule="evenodd" d="M150.345 74.4918H134.575V89.1803H119.855V135.344H105.136V150.033H165.064V164.721H179.783V104.918H195.554V89.1803H165.064V59.8033H150.345V74.4918ZM134.575 135.344H150.345V104.918H134.575V135.344ZM195.554 179.41V195.148H210.273V164.721H195.554V179.41ZM105.136 224.525H112.496H119.855V240.262H165.064V224.525H150.345V209.836H105.136V224.525Z" fill="white"/>
<path fill-rule="evenodd" clip-rule="evenodd" d="M74.6468 52.459V59.8033H89.3659V74.4918H108.29H134.575H150.345V59.8033H165.064V44.0656H134.575V59.8033H105.136V44.0656H74.6468V52.459ZM59.9277 59.8033V68.1967V74.4918H29.4382V104.918H44.1573V119.607H59.9277V150.033H44.1573V179.41H59.9277V224.525H74.6468V240.262H89.3659V224.525H83.0577H74.6468V209.836H165.064V195.148H179.783V179.41H195.554V164.721H224.992V150.033H195.554V104.918H210.273V74.4918H179.783V59.8033H173.475H165.064V89.1803H195.554V104.918H179.783V179.41H165.064V195.148H74.6468V179.41H59.9277V150.033H74.6468V104.918H59.9277H44.1573V89.1803H74.6468V59.8033H68.3386H59.9277ZM89.3659 135.344H105.136V104.918H89.3659V135.344ZM134.575 135.344H150.345V104.918H134.575V135.344ZM89.3659 179.41H105.136V164.721H89.3659V179.41ZM119.855 179.41H134.575V164.721H128.266H119.855V179.41Z" fill="#080707"/>
</svg>

<svg xmlns="http://www.w3.org/2000/svg" fill="none" viewBox="0 0 257 256"><path fill="gray" fill-rule="evenodd" d="M74.647 68.197V89.18h-30.49v15.738h30.49v45.115h30.489v-14.689h14.719V89.18h14.72V74.492h8.41-53.62V59.803H74.648V52.46zm14.719 67.147h15.77v-30.426h-15.77zm90.417 44.066h-14.719v15.738-15.738zv15.738h-14.719v14.688h-14.719v14.689h45.209v-14.689h14.719v-14.688h-14.719V179.41zv-74.492zm45.209-22.033v7.344h-22.079 7.36v30.427h14.719v-22.033q.246-7.869 0-15.738M74.647 224.525v15.737zh14.719v15.737h30.489v-15.737h-14.719v-14.689h-30.49z" clip-rule="evenodd"/><path fill="#FFA100" fill-rule="evenodd" d="M89.366 14.689H59.928v14.688h-15.77v14.689h-14.72v15.737H14.72V89.18H0v75.541h14.72v30.427h14.718v14.688h14.72v14.689h15.77v15.737h14.719v-15.737h-14.72V179.41h-15.77v-74.492H29.438V74.492h30.49V59.803h14.719V44.066h90.417v15.737h14.719v14.689h30.49v30.426h14.719v90.23h-14.719v14.688h-14.719v14.689h-30.49v15.737H89.366V256h75.698v-15.738h30.49v-15.737h14.719v-14.689h14.719v-14.688h15.77v-30.427h15.771v-38.819s1.051-37.77 0-36.722h-15.771V59.803h-15.77V44.066h-14.719V29.377h-14.719V14.689h-30.49V0H89.366z" clip-rule="evenodd"/><path fill="#FFD775" fill-rule="evenodd" d="M105.136 59.803h29.439V44.066h-29.439zm98.829 45.115h-8.411v45.115h29.438v-45.115zM44.157 150.033h15.77v-30.426h-15.77z" clip-rule="evenodd"/><path fill="#ED9B9D" fill-rule="evenodd" d="M59.928 179.41h14.719v15.738h90.417V179.41h14.719v-14.689h-14.719v-14.688H59.928zm29.438-14.689v14.689h15.77v-14.689zm30.489 14.689h14.72v-14.689h-14.72z" clip-rule="evenodd"/><path fill="#fff" fill-rule="evenodd" d="M150.345 74.492h-15.77V89.18h-14.72v46.164h-14.719v14.689h59.928v14.688h14.719v-59.803h15.771V89.18h-30.49V59.803h-14.719zm-15.77 60.852h15.77v-30.426h-15.77zm60.979 44.066v15.738h14.719v-30.427h-14.719zm-90.418 45.115h14.719v15.737h45.209v-15.737h-14.719v-14.689h-45.209z" clip-rule="evenodd"/><path fill="#080707" fill-rule="evenodd" d="M74.647 52.459v7.344h14.719v14.689h60.979V59.803h14.719V44.066h-30.489v15.737h-29.439V44.066h-30.49zm-14.72 7.344v14.689H29.439v30.426h14.72v14.689h15.77v30.426h-15.77v29.377h15.77v45.115h14.719v15.737h14.719v-15.737h-14.72v-14.689h90.417v-14.688h14.719V179.41h15.771v-14.689h29.438v-14.688h-29.438v-45.115h14.719V74.492h-30.49V59.803h-14.719V89.18h30.49v15.738h-15.771v74.492h-14.719v15.738H74.647V179.41h-14.72v-29.377h14.72v-45.115h-30.49V89.18h30.49V59.803zm29.439 75.541h15.77v-30.426h-15.77zm45.209 0h15.77v-30.426h-15.77zm-45.21 44.066h15.771v-14.689h-15.77zm30.49 0h14.72v-14.689h-14.72z" clip-rule="evenodd"/></svg>
